!!!!SEGMENT: Any3007-Quanta_dolceca_amore--Newberry_Partbooks.krn
!!!id: Any3007
!!!AGN: Madrigal
!!!voices: 4
!!!COM: Anonymous
!!!SMS: Newberry Partbooks
!!!OTL: Quanta dolceça, amore (Newberry Partbooks)
**kern	**kern	**kern	**kern
*part4	*part3	*part2	*part1
*staff4	*staff3	*staff2	*staff1
*I"Bassus	*I"Tenor	*I"Altus	*I"Superius
*I'B	*I'T	*I'A	*I'S
*clefGv2	*clefG2	*clefG2	*clefG2
*k[]	*k[]	*k[]	*k[]
*C:	*C:	*C:	*C:
*M2/1	*M2/1	*M2/1	*M2/1
*met(C|)	*met(C|)	*met(C|)	*met(C|)
0r	1r	0r	1a
.	1a	.	2.f
.	.	.	4e
=1	=1	=1	=1
0r	2.f	0r	2d
.	.	.	2.ff
.	4e	.	.
.	2d	.	.
.	.	.	4ee
.	2f	.	[2dd
=2	=2	=2	=2
0r	1e	1r	2dd]
.	.	.	2cc#i
.	[1d	1a	[1dd
=3	=3	=3	=3
1a	1d]	2.f	1dd]
.	.	4e	.
2.f	1r	2d	1r
.	.	[2ff	.
4e	.	.	.
=4	=4	=4	=4
2d	0r	4ff]	0r
.	.	4ee	.
2f	.	2.dd	.
1e	.	.	.
.	.	4cc#i	.
.	.	4cc#i	.
.	.	8bL	.
.	.	8cc#iJ	.
=5	=5	=5	=5
1d	1r	2dd	1r
.	.	2d	.
1A	1a	2r	1cc
.	.	2e	.
=6	=6	=6	=6
2A	2a	2e	2cc
2d	2a	2f	2dd
2B	2g	2d	2dd
2A	[2a	2e	2cc
=7	=7	=7	=7
1d	2a]	1f	1dd
.	2b	.	.
2.c	1cc	2.g	2ee
.	.	.	[2ee
4d	.	4f	.
=8	=8	=8	=8
2e	2b	2g	2ee]
2f	2a	1a	2dd
1e	1b	.	1ee
.	.	2g#i	.
=9	=9	=9	=9
2A	1a	0a	1cc
2a	.	.	.
2.f	1r	.	2r
.	.	.	2a
4e	.	.	.
=10	=10	=10	=10
1.d	1a	0r	2.f
.	.	.	4e
.	2.f	.	2d
2d	.	.	[2ff
.	4e	.	.
=11	=11	=11	=11
1d	2d	1r	4ff]
.	.	.	4ee
.	2f	.	1dd
1A	1e	1a	.
.	.	.	2cc#i
=12	=12	=12	=12
2r	0d	2.f	0dd
2a	.	.	.
.	.	4e	.
2.f	.	2d	.
.	.	[2ff	.
4e	.	.	.
=13	=13	=13	=13
2d	0r	4ff]	0r
.	.	4ee	.
2f	.	2.dd	.
1e	.	.	.
.	.	4cc#i	.
.	.	4cc#i	.
.	.	8bL	.
.	.	8cc#iJ	.
=14	=14	=14	=14
1d	1r	2dd	1r
.	.	2d	.
1A	1a	2r	1cc
.	.	2e	.
=15	=15	=15	=15
2A	2a	2e	2cc
2d	2a	2f	2dd
2B	2g	2d	2dd
2A	[2a	2e	2cc
=16	=16	=16	=16
1d	2a]	1f	1dd
.	2b	.	.
2.c	1cc	2.g	2ee
.	.	.	[2ee
4d	.	4f	.
=17	=17	=17	=17
2e	2b	2g	2ee]
2f	2a	1a	2dd
1e	1b	.	1ee
.	.	2g#i	.
=18	=18	=18	=18
1A	[0a	1a	0cc
2r	.	2r	.
2A	.	2e	.
=19	=19	=19	=19
1d	0a]	1f	0r
2c	.	2e	.
[2A	.	[2cc	.
=20	=20	=20	=20
2A]	2r	4cc]	2r
.	.	4b	.
2c	2e	1a	2cc
1B	1d	.	1dd
.	.	2g#i	.
=21	=21	=21	=21
0A	2e	1a	2cc
.	2.cc	.	1a
.	.	1r	.
.	4b	.	.
.	[2a	.	2cc
=22	=22	=22	=22
2r	2a]	1r	1b
2e	2g#i	.	.
2.f	1a	2r	[1a
.	.	2a	.
4e	.	.	.
=23	=23	=23	=23
2d	0r	2f	1a]
2c	.	2a	.
1B	.	2a	2r
.	.	2g	2b
=24	=24	=24	=24
1A	2r	4a	2.cc
.	.	4g	.
.	2ee	4a	.
.	.	4b	4b
1r	2ee	4cc	2a
.	.	4a	.
.	2ee	[2b	2g
=25	=25	=25	=25
0r	4dd	4b]	1f
.	4cc	4a	.
.	4b	1a	.
.	4a	.	.
.	1b	.	1e
.	.	2g#i	.
=26	=26	=26	=26
1r	1cc	1a	1r
1A	2r	2r	1cc
.	2a	2e	.
=27	=27	=27	=27
2d	2a	2f	2dd
2A	2a	2e	2cc
1d	1a	1f	1dd
=28	=28	=28	=28
1c	1cc	1g	1ee
[1f	[1cc	[1a	[1ff
=29	=29	=29	=29
1f]	1cc]	2a]	1ff]
.	.	4g	.
.	.	4f	.
1c	1cc	2g	1ee
.	.	[2a	.
=30	=30	=30	=30
2f	2a	4a]	2dd
.	.	4f	.
2e	2b	2g	2.ee
1A	1cc	2.a	.
.	.	.	4dd
.	.	.	4cc
.	.	8gL	4b
.	.	8fJ	.
=31	=31	=31	=31
2.A	1.cc	2e	4a
.	.	.	4b
.	.	2a	4cc
4B	.	.	4dd
2c	.	2g	2ee
2d	2b	2f	[2dd
=32	=32	=32	=32
1A	2.a	1e	2dd]
.	.	.	2cc#i
.	4g	.	.
[1d	[1f#X	4d	[1ddl
.	.	4e	.
.	.	4f	.
.	.	4g	.
=33	=33	=33	=33
1d]	1f#]	2a	0dd_
.	.	2.b	.
[1G	1g	.	.
.	.	4a	.
.	.	4g	.
.	.	4f	.
=34	=34	=34	=34
1G]	1b	1g	0dd_
[1dl	[1al	[1fl	.
=35	=35	=35	=35
00d]	00a]	00f]	00dd]
==	==	==	==
*-	*-	*-	*-
!!!system-decoration: [*]
!!!RDF**kern: i = editorial accidental
!!!RDF**kern: l = terminal long
!!!ENC: Benjamin Ory
!!!END: 2024/5/9
!!!EED: Benjamin Ory
!!!EEV: 2024/05/09
!!!YEC: Copyright 2024 Benjamin Ory, All Rights Reserved
!!!ONB: Translated from MusicXML on 2024/05/09
